X:1150
T:Otxa.
C:John Malchair's Third Collection of Tunes
F:https://www.vwml.org/record/Malchair/3619/p115
F:www.vwml.org/topics/historic-dance-and-tune-books/Malchair
Z:Eric Conrad Feb 2020
N:NB1 In the MS, the D and the B are not dotted.
M:3/8
L:1/16
P:ABAC  % My best guest as to how this is to be played...
K:G
P:A
[Bg][Bg]/[Bg]/ [Bg][Bg]/[Bg]/ [Bg][Bg]/[Bg]/ | [Bg][Bg]/[Bg]/ [Bg][Bg] [Af][Af] | \
[DBg]2[DBg]2[DBg]2 | [DBg] defge | dg gf fe | ed d3B |
G[Bg]/[Bg]/ [Bg][Bg]/[Bg]/ [Bg][Bg]/[Bg]/ | [DBg]3 ggg | \
{b}a3 fga | bbbagf | (ag)(fg)(fg) | {f}e3 efg |
(d/e/d/e/) (f/g/f/g/) {b}a2 | z defge | dg gf fe | ed d3B || \
P:B
!segno!G[Bg]/[Bg]/ [Bg][Bg]/[Bg]/ [Bg][Bg]/[Bg]/ | [Bg][Bg]/[Bg]/ [Bg][Bg] [Af][Af] |
([DBg]2[DBg]2[DBg]2) | "_NB1"[DBg]3 ggg | {b}a3 fga | bbbagf | agfgfg | \
{f}e3 efg | (d/e/d/e/) (f/g/f/g/) {b}a2 |
z defge | (dg)(gf)(fe) | "^D.C. al segno"ed d3B || \
P:C
G2 x4 |]

